X: 170
T: Yi ma ya ji song
%%abc-version 2.0
%%abcx-abcm2ps-target-version 5.9.1 (29 Sep 2008)
%%abc-creator hum2abc beta
%%abcx-conversion-date 2013/10/02 07:44:27
%%abc-edited-by Helmut Schaffrath
%%humdrum-veritas 320104299
%%humdrum-veritas-data 1239580697
%%continueall 1
%%barnumbers 0
L: 1/16
M: 2/4
K: A
B2 B2 B d f e [I:setbarnb 1]| 
f af6- | 
f8 | 
e2 e d e2 f a | 
f4e2 B d | 
e2 f2 e2 B d | 
e dB6- | 
B8 | 
e2 e2 d e c B | 
A2A4F2 | 
E2 f A B d f2 | 
f2 e f d B d f | 
e2 e d B d A d | 
B2B6- | 
B8 | 
A B c e B2 B2 | 
A B c e B2 B2 | 
A B c eB4B2 z2 |]  



